Numix-Circle/48x48/apps/gba.svg

<svg viewBox="0 0 48 48"><defs><linearGradient id="linearGradient3764" x1="1" x2="47" gradientUnits="userSpaceOnUse" gradientTransform="matrix(0,-1,1,0,-1.5e-6,47.999998)"><stop stop-color="#3d3d3d" stop-opacity="1"/><stop offset="1" stop-color="#474747" stop-opacity="1"/></linearGradient><clipPath id="clipPath-666848582"><g transform="translate(0,-1004.3622)"><path d="m -24 13 c 0 1.105 -0.672 2 -1.5 2 -0.828 0 -1.5 -0.895 -1.5 -2 0 -1.105 0.672 -2 1.5 -2 0.828 0 1.5 0.895 1.5 2 z" transform="matrix(15.333333,0,0,11.5,414.99999,878.8622)" fill="#1890d0"/></g></clipPath><clipPath id="clipPath-675088828"><g transform="translate(0,-1004.3622)"><path d="m -24 13 c 0 1.105 -0.672 2 -1.5 2 -0.828 0 -1.5 -0.895 -1.5 -2 0 -1.105 0.672 -2 1.5 -2 0.828 0 1.5 0.895 1.5 2 z" transform="matrix(15.333333,0,0,11.5,414.99999,878.8622)" fill="#1890d0"/></g></clipPath></defs><g><path d="m 36.31 5 c 5.859 4.062 9.688 10.831 9.688 18.5 c 0 12.426 -10.07 22.5 -22.5 22.5 c -7.669 0 -14.438 -3.828 -18.5 -9.688 c 1.037 1.822 2.306 3.499 3.781 4.969 c 4.085 3.712 9.514 5.969 15.469 5.969 c 12.703 0 23 -10.298 23 -23 c 0 -5.954 -2.256 -11.384 -5.969 -15.469 c -1.469 -1.475 -3.147 -2.744 -4.969 -3.781 z m 4.969 3.781 c 3.854 4.113 6.219 9.637 6.219 15.719 c 0 12.703 -10.297 23 -23 23 c -6.081 0 -11.606 -2.364 -15.719 -6.219 c 4.16 4.144 9.883 6.719 16.219 6.719 c 12.703 0 23 -10.298 23 -23 c 0 -6.335 -2.575 -12.06 -6.719 -16.219 z" opacity="0.05"/><path d="m 41.28 8.781 c 3.712 4.085 5.969 9.514 5.969 15.469 c 0 12.703 -10.297 23 -23 23 c -5.954 0 -11.384 -2.256 -15.469 -5.969 c 4.113 3.854 9.637 6.219 15.719 6.219 c 12.703 0 23 -10.298 23 -23 c 0 -6.081 -2.364 -11.606 -6.219 -15.719 z" opacity="0.1"/><path d="m 31.25 2.375 c 8.615 3.154 14.75 11.417 14.75 21.13 c 0 12.426 -10.07 22.5 -22.5 22.5 c -9.708 0 -17.971 -6.135 -21.12 -14.75 a 23 23 0 0 0 44.875 -7 a 23 23 0 0 0 -16 -21.875 z" opacity="0.2"/></g><g><path d="m 24 1 c 12.703 0 23 10.297 23 23 c 0 12.703 -10.297 23 -23 23 -12.703 0 -23 -10.297 -23 -23 0 -12.703 10.297 -23 23 -23 z" fill="url(#linearGradient3764)" fill-opacity="1"/></g><g/><g><g clip-path="url(#clipPath-666848582)"><g transform="translate(1,1)"><g opacity="0.1"><!-- color: #474747 --><g><path d="m 18.17 12 l 11.668 0 c 0.641 0 1.164 0.523 1.164 1.168 l 0 21.668 c 0 0.641 -0.523 1.164 -1.164 1.164 l -11.668 0 c -0.648 0 -1.168 -0.523 -1.168 -1.164 l 0 -21.668 c 0 -0.645 0.52 -1.168 1.168 -1.168 m 0 0" fill="#000" stroke="none" fill-rule="nonzero" fill-opacity="1"/><path d="m 17.355 23 l 13.289 0 c 0.195 0 0.355 0.16 0.355 0.355 l 0 1.289 c 0 0.195 -0.16 0.352 -0.355 0.352 l -13.289 0 c -0.195 0 -0.355 -0.156 -0.355 -0.352 l 0 -1.289 c 0 -0.195 0.16 -0.355 0.355 -0.355 m 0 0" fill="#000" stroke="none" fill-rule="nonzero" fill-opacity="0.251"/><path d="m 20 28 l 0.996 0 l 0 3 l -0.996 0 m 0 -3" fill="#000" stroke="none" fill-rule="nonzero" fill-opacity="0.902"/><path d="m 19 29 l 3 0 l 0 0.996 l -3 0 m 0 -0.996" fill="#000" stroke="none" fill-rule="nonzero" fill-opacity="0.902"/><path d="m 28 28.5 c 0 0.277 -0.223 0.5 -0.5 0.5 c -0.277 0 -0.5 -0.223 -0.5 -0.5 c 0 -0.277 0.223 -0.5 0.5 -0.5 c 0.277 0 0.5 0.223 0.5 0.5 m 0 0" fill="#000" stroke="none" fill-rule="nonzero" fill-opacity="0.902"/><path d="m 29 29.5 c 0 0.277 -0.223 0.5 -0.5 0.5 c -0.277 0 -0.5 -0.223 -0.5 -0.5 c 0 -0.277 0.223 -0.5 0.5 -0.5 c 0.277 0 0.5 0.223 0.5 0.5 m 0 0" fill="#000" stroke="none" fill-rule="nonzero" fill-opacity="0.902"/><path d="m 27 29.5 c 0 0.277 -0.223 0.5 -0.5 0.5 c -0.277 0 -0.5 -0.223 -0.5 -0.5 c 0 -0.277 0.223 -0.5 0.5 -0.5 c 0.277 0 0.5 0.223 0.5 0.5 m 0 0" fill="#000" stroke="none" fill-rule="nonzero" fill-opacity="0.902"/><path d="m 28 30.5 c 0 0.277 -0.223 0.5 -0.5 0.5 c -0.277 0 -0.5 -0.223 -0.5 -0.5 c 0 -0.277 0.223 -0.5 0.5 -0.5 c 0.277 0 0.5 0.223 0.5 0.5 m 0 0" fill="#000" stroke="none" fill-rule="nonzero" fill-opacity="0.902"/><path d="m 23 26 l 1.996 0 l 0 1 l -1.996 0 m 0 -1" fill="#000" stroke="none" fill-rule="nonzero" fill-opacity="0.902"/><path d="m 19 14 l 10 0 l 0 7 l -10 0 m 0 -7" fill="#000" stroke="none" fill-rule="nonzero" fill-opacity="0.902"/><path d="m 26 33.563 c 0 0.277 -0.223 0.5 -0.5 0.5 c -0.277 0 -0.5 -0.223 -0.5 -0.5 c 0 -0.277 0.223 -0.5 0.5 -0.5 c 0.277 0 0.5 0.223 0.5 0.5 m 0 0" fill="#000" stroke="none" fill-rule="nonzero" fill-opacity="0.902"/><path d="m 23 33.563 c 0 0.277 -0.223 0.5 -0.5 0.5 c -0.277 0 -0.5 -0.223 -0.5 -0.5 c 0 -0.277 0.223 -0.5 0.5 -0.5 c 0.277 0 0.5 0.223 0.5 0.5 m 0 0" fill="#000" stroke="none" fill-rule="nonzero" fill-opacity="0.902"/></g></g></g></g></g><g><g clip-path="url(#clipPath-675088828)"><!-- color: #474747 --><g><path d="m 18.17 12 l 11.668 0 c 0.641 0 1.164 0.523 1.164 1.168 l 0 21.668 c 0 0.641 -0.523 1.164 -1.164 1.164 l -11.668 0 c -0.648 0 -1.168 -0.523 -1.168 -1.164 l 0 -21.668 c 0 -0.645 0.52 -1.168 1.168 -1.168 m 0 0" fill="#955bc1" stroke="none" fill-rule="nonzero" fill-opacity="1"/><path d="m 17.355 23 l 13.289 0 c 0.195 0 0.355 0.16 0.355 0.355 l 0 1.289 c 0 0.195 -0.16 0.352 -0.355 0.352 l -13.289 0 c -0.195 0 -0.355 -0.156 -0.355 -0.352 l 0 -1.289 c 0 -0.195 0.16 -0.355 0.355 -0.355 m 0 0" fill="#fff" stroke="none" fill-rule="nonzero" fill-opacity="0.251"/><path d="m 20 28 l 0.996 0 l 0 3 l -0.996 0 m 0 -3" fill="#f9f9f9" stroke="none" fill-rule="nonzero" fill-opacity="0.902"/><path d="m 19 29 l 3 0 l 0 0.996 l -3 0 m 0 -0.996" fill="#f9f9f9" stroke="none" fill-rule="nonzero" fill-opacity="0.902"/><path d="m 28 28.5 c 0 0.277 -0.223 0.5 -0.5 0.5 c -0.277 0 -0.5 -0.223 -0.5 -0.5 c 0 -0.277 0.223 -0.5 0.5 -0.5 c 0.277 0 0.5 0.223 0.5 0.5 m 0 0" fill="#f9f9f9" stroke="none" fill-rule="nonzero" fill-opacity="0.902"/><path d="m 29 29.5 c 0 0.277 -0.223 0.5 -0.5 0.5 c -0.277 0 -0.5 -0.223 -0.5 -0.5 c 0 -0.277 0.223 -0.5 0.5 -0.5 c 0.277 0 0.5 0.223 0.5 0.5 m 0 0" fill="#f9f9f9" stroke="none" fill-rule="nonzero" fill-opacity="0.902"/><path d="m 27 29.5 c 0 0.277 -0.223 0.5 -0.5 0.5 c -0.277 0 -0.5 -0.223 -0.5 -0.5 c 0 -0.277 0.223 -0.5 0.5 -0.5 c 0.277 0 0.5 0.223 0.5 0.5 m 0 0" fill="#f9f9f9" stroke="none" fill-rule="nonzero" fill-opacity="0.902"/><path d="m 28 30.5 c 0 0.277 -0.223 0.5 -0.5 0.5 c -0.277 0 -0.5 -0.223 -0.5 -0.5 c 0 -0.277 0.223 -0.5 0.5 -0.5 c 0.277 0 0.5 0.223 0.5 0.5 m 0 0" fill="#f9f9f9" stroke="none" fill-rule="nonzero" fill-opacity="0.902"/><path d="m 23 26 l 1.996 0 l 0 1 l -1.996 0 m 0 -1" fill="#f9f9f9" stroke="none" fill-rule="nonzero" fill-opacity="0.902"/><path d="m 19 14 l 10 0 l 0 7 l -10 0 m 0 -7" fill="#f9f9f9" stroke="none" fill-rule="nonzero" fill-opacity="0.902"/><path d="m 26 33.563 c 0 0.277 -0.223 0.5 -0.5 0.5 c -0.277 0 -0.5 -0.223 -0.5 -0.5 c 0 -0.277 0.223 -0.5 0.5 -0.5 c 0.277 0 0.5 0.223 0.5 0.5 m 0 0" fill="#f9f9f9" stroke="none" fill-rule="nonzero" fill-opacity="0.902"/><path d="m 23 33.563 c 0 0.277 -0.223 0.5 -0.5 0.5 c -0.277 0 -0.5 -0.223 -0.5 -0.5 c 0 -0.277 0.223 -0.5 0.5 -0.5 c 0.277 0 0.5 0.223 0.5 0.5 m 0 0" fill="#f9f9f9" stroke="none" fill-rule="nonzero" fill-opacity="0.902"/></g></g></g><g><path d="m 40.03 7.531 c 3.712 4.084 5.969 9.514 5.969 15.469 0 12.703 -10.297 23 -23 23 c -5.954 0 -11.384 -2.256 -15.469 -5.969 4.178 4.291 10.01 6.969 16.469 6.969 c 12.703 0 23 -10.298 23 -23 0 -6.462 -2.677 -12.291 -6.969 -16.469 z" opacity="0.1"/></g></svg>

<svg xmlns="http://www.w3.org/2000/svg" viewBox="0 0 48 48"><defs><linearGradient id="linearGradient3764" x1="1" x2="47" gradientUnits="userSpaceOnUse" gradientTransform="matrix(0,-1,1,0,-1.5e-6,47.999998)"><stop stop-color="#3d3d3d" stop-opacity="1"/><stop offset="1" stop-color="#474747" stop-opacity="1"/></linearGradient><clipPath id="clipPath-666848582"><g transform="translate(0,-1004.3622)"><path d="m -24 13 c 0 1.105 -0.672 2 -1.5 2 -0.828 0 -1.5 -0.895 -1.5 -2 0 -1.105 0.672 -2 1.5 -2 0.828 0 1.5 0.895 1.5 2 z" transform="matrix(15.333333,0,0,11.5,414.99999,878.8622)" fill="#1890d0"/></g></clipPath><clipPath id="clipPath-675088828"><g transform="translate(0,-1004.3622)"><path d="m -24 13 c 0 1.105 -0.672 2 -1.5 2 -0.828 0 -1.5 -0.895 -1.5 -2 0 -1.105 0.672 -2 1.5 -2 0.828 0 1.5 0.895 1.5 2 z" transform="matrix(15.333333,0,0,11.5,414.99999,878.8622)" fill="#1890d0"/></g></clipPath></defs><g><path d="m 36.31 5 c 5.859 4.062 9.688 10.831 9.688 18.5 c 0 12.426 -10.07 22.5 -22.5 22.5 c -7.669 0 -14.438 -3.828 -18.5 -9.688 c 1.037 1.822 2.306 3.499 3.781 4.969 c 4.085 3.712 9.514 5.969 15.469 5.969 c 12.703 0 23 -10.298 23 -23 c 0 -5.954 -2.256 -11.384 -5.969 -15.469 c -1.469 -1.475 -3.147 -2.744 -4.969 -3.781 z m 4.969 3.781 c 3.854 4.113 6.219 9.637 6.219 15.719 c 0 12.703 -10.297 23 -23 23 c -6.081 0 -11.606 -2.364 -15.719 -6.219 c 4.16 4.144 9.883 6.719 16.219 6.719 c 12.703 0 23 -10.298 23 -23 c 0 -6.335 -2.575 -12.06 -6.719 -16.219 z" opacity="0.05"/><path d="m 41.28 8.781 c 3.712 4.085 5.969 9.514 5.969 15.469 c 0 12.703 -10.297 23 -23 23 c -5.954 0 -11.384 -2.256 -15.469 -5.969 c 4.113 3.854 9.637 6.219 15.719 6.219 c 12.703 0 23 -10.298 23 -23 c 0 -6.081 -2.364 -11.606 -6.219 -15.719 z" opacity="0.1"/><path d="m 31.25 2.375 c 8.615 3.154 14.75 11.417 14.75 21.13 c 0 12.426 -10.07 22.5 -22.5 22.5 c -9.708 0 -17.971 -6.135 -21.12 -14.75 a 23 23 0 0 0 44.875 -7 a 23 23 0 0 0 -16 -21.875 z" opacity="0.2"/></g><g><path d="m 24 1 c 12.703 0 23 10.297 23 23 c 0 12.703 -10.297 23 -23 23 -12.703 0 -23 -10.297 -23 -23 0 -12.703 10.297 -23 23 -23 z" fill="url(#linearGradient3764)" fill-opacity="1"/></g><g><g clip-path="url(#clipPath-666848582)"><g transform="translate(1,1)"><g opacity="0.1"><!-- color: #474747 --><g><path d="m 18.17 12 l 11.668 0 c 0.641 0 1.164 0.523 1.164 1.168 l 0 21.668 c 0 0.641 -0.523 1.164 -1.164 1.164 l -11.668 0 c -0.648 0 -1.168 -0.523 -1.168 -1.164 l 0 -21.668 c 0 -0.645 0.52 -1.168 1.168 -1.168 m 0 0" fill="#000" stroke="none" fill-rule="nonzero" fill-opacity="1"/></g></g></g></g></g><g><g clip-path="url(#clipPath-675088828)"><!-- color: #474747 --><g><path d="m 18.17,12 11.668,0 c 0.641,0 1.164,0.523 1.164,1.168 l 0,21.668 C 31.002,35.477 30.479,36 29.838,36 L 18.17,36 c -0.648,0 -1.168,-0.523 -1.168,-1.164 l 0,-21.668 C 17.002,12.523 17.522,12 18.17,12 m 0,0" fill="#955bc1" fill-rule="nonzero" stroke="none" fill-opacity="1"/><path d="m 17.355,23 13.289,0 c 0.195,0 0.355,0.16 0.355,0.355 l 0,1.289 c 0,0.195 -0.16,0.352 -0.355,0.352 l -13.289,0 C 17.16,24.996 17,24.84 17,24.644 l 0,-1.289 C 17,23.16 17.16,23 17.355,23 m 0,0" fill="#fff" fill-rule="nonzero" stroke="none" fill-opacity="0.251"/><path d="m 20,28 0.996,0 0,3 L 20,31 m 0,-3" fill="#f9f9f9" fill-rule="nonzero" stroke="none" fill-opacity="0.902"/><path d="m 19,29 3,0 0,0.996 -3,0 M 19,29" fill="#f9f9f9" fill-rule="nonzero" stroke="none" fill-opacity="0.902"/><path d="M 28,28.5 C 28,28.777 27.777,29 27.5,29 27.223,29 27,28.777 27,28.5 27,28.223 27.223,28 27.5,28 c 0.277,0 0.5,0.223 0.5,0.5 m 0,0" fill="#f9f9f9" fill-rule="nonzero" stroke="none" fill-opacity="0.902"/><path d="M 29,29.5 C 29,29.777 28.777,30 28.5,30 28.223,30 28,29.777 28,29.5 28,29.223 28.223,29 28.5,29 c 0.277,0 0.5,0.223 0.5,0.5 m 0,0" fill="#f9f9f9" fill-rule="nonzero" stroke="none" fill-opacity="0.902"/><path d="M 27,29.5 C 27,29.777 26.777,30 26.5,30 26.223,30 26,29.777 26,29.5 26,29.223 26.223,29 26.5,29 c 0.277,0 0.5,0.223 0.5,0.5 m 0,0" fill="#f9f9f9" fill-rule="nonzero" stroke="none" fill-opacity="0.902"/><path d="M 28,30.5 C 28,30.777 27.777,31 27.5,31 27.223,31 27,30.777 27,30.5 27,30.223 27.223,30 27.5,30 c 0.277,0 0.5,0.223 0.5,0.5 m 0,0" fill="#f9f9f9" fill-rule="nonzero" stroke="none" fill-opacity="0.902"/><path d="m 23,26 1.996,0 0,1 L 23,27 m 0,-1" fill="#f9f9f9" fill-rule="nonzero" stroke="none" fill-opacity="0.902"/><path d="m 19 14 10 0 0 7 -10 0 m 0 -7" fill="#f9f9f9" fill-rule="nonzero" stroke="none" fill-opacity="0.902"/><path d="m 26 33.563 c 0 0.277 -0.223 0.5 -0.5 0.5 -0.277 0 -0.5 -0.223 -0.5 -0.5 0 -0.277 0.223 -0.5 0.5 -0.5 0.277 0 0.5 0.223 0.5 0.5 m 0 0" fill="#f9f9f9" fill-rule="nonzero" stroke="none" fill-opacity="0.902"/><path d="m 23 33.563 c 0 0.277 -0.223 0.5 -0.5 0.5 -0.277 0 -0.5 -0.223 -0.5 -0.5 0 -0.277 0.223 -0.5 0.5 -0.5 0.277 0 0.5 0.223 0.5 0.5 m 0 0" fill="#f9f9f9" fill-rule="nonzero" stroke="none" fill-opacity="0.902"/></g></g></g><g><path d="m 40.03 7.531 c 3.712 4.084 5.969 9.514 5.969 15.469 0 12.703 -10.297 23 -23 23 c -5.954 0 -11.384 -2.256 -15.469 -5.969 4.178 4.291 10.01 6.969 16.469 6.969 c 12.703 0 23 -10.298 23 -23 0 -6.462 -2.677 -12.291 -6.969 -16.469 z" opacity="0.1"/></g></svg>
